src/assets/images/logos/angular.svg

<svg fill="none" height="43" width="41" xmlns="http://www.w3.org/2000/svg"><path d="m20.5 26.644h5.232l2.478 6.185h4.618l-12.328-27.642v.022-4.703l19.72 7.034-3.008 26.074-16.712 9.255z" fill="#d3263e"/><path d="m24.101 22.832h-3.6v-8.664z" fill="#d3263e"/><g fill="#e92441"><path d="m20.5 26.645h-5.232l-2.478 6.185h-4.618l12.328-27.642v.021-4.702l-19.72 7.032 3.008 26.074 16.712 9.257z"/><path d="m16.9 22.832h3.6v-8.664z"/></g></svg>

<svg width="41" height="43" fill="none" xmlns="http://www.w3.org/2000/svg"><path d="M20.5 26.644h5.232l2.478 6.185h4.618L20.5 5.187v.022V.506L40.22 7.54l-3.008 26.074L20.5 42.869V26.644z" fill="#D3263E"/><path d="M24.101 22.832h-3.6v-8.664l3.6 8.664z" fill="#D3263E"/><path d="M20.5 26.645h-5.232L12.79 32.83H8.172L20.5 5.188v.021V.507L.78 7.539l3.008 26.074L20.5 42.87V26.645z" fill="#E92441"/><path d="M16.9 22.832h3.6v-8.664l-3.6 8.664z" fill="#E92441"/></svg>
